assets/svg/25C0.svg

<svg xmlns="http://www.w3.org/2000/svg" viewBox="0 0 64 64" enable-background="new 0 0 64 64"><path fill="#1b75bb" d="m63.998 57.12c0 3.802-3.076 6.882-6.876 6.882h-50.04c-3.795 0-6.874-3.08-6.874-6.882v-50.04c0-3.797 3.078-6.877 6.874-6.877h50.04c3.8 0 6.876 3.08 6.876 6.877v50.04z"/><path fill="#0867a3" d="m.207 48.779v8.339c0 3.802 3.078 6.882 6.874 6.882h50.04c3.8 0 6.876-3.08 6.876-6.882v-50.04c-10.894 39.568-50.05 42.08-63.792 41.696"/><path fill="#fff" d="m42.736 52.21c2.843-.191 5.216-1.435 6.257-3.135v-33.937c-1.045-1.705-3.428-2.947-6.272-3.135l-27.511 20.03 27.526 20.17"/></svg>

<?xml version="1.0" encoding="UTF-8" standalone="no"?>
<!-- Generator: Adobe Illustrator 16.0.0, SVG Export Plug-In . SVG Version: 6.00 Build 0)  -->

<svg
   xmlns:dc="http://purl.org/dc/elements/1.1/"
   xmlns:cc="http://creativecommons.org/ns#"
   xmlns:rdf="http://www.w3.org/1999/02/22-rdf-syntax-ns#"
   xmlns:svg="http://www.w3.org/2000/svg"
   xmlns="http://www.w3.org/2000/svg"
   xmlns:sodipodi="http://sodipodi.sourceforge.net/DTD/sodipodi-0.dtd"
   xmlns:inkscape="http://www.inkscape.org/namespaces/inkscape"
   version="1.1"
   id="Layer_1"
   x="0px"
   y="0px"
   width="64px"
   height="64px"
   viewBox="0 0 64 64"
   enable-background="new 0 0 64 64"
   xml:space="preserve"
   inkscape:version="0.48.5 r10040"
   sodipodi:docname="25C0.svg"
   inkscape:export-filename="D:\TESTINGEMOJI\SVGTEST\25C0.png"
   inkscape:export-xdpi="90"
   inkscape:export-ydpi="90"><metadata
   id="metadata3191"><rdf:RDF><cc:Work
       rdf:about=""><dc:format>image/svg+xml</dc:format><dc:type
         rdf:resource="http://purl.org/dc/dcmitype/StillImage" /><dc:title></dc:title></cc:Work></rdf:RDF></metadata><defs
   id="defs3189" /><sodipodi:namedview
   pagecolor="#ffffff"
   bordercolor="#666666"
   borderopacity="1"
   objecttolerance="10"
   gridtolerance="10"
   guidetolerance="10"
   inkscape:pageopacity="0"
   inkscape:pageshadow="2"
   inkscape:window-width="640"
   inkscape:window-height="480"
   id="namedview3187"
   showgrid="false"
   inkscape:zoom="3.6875"
   inkscape:cx="32"
   inkscape:cy="32"
   inkscape:window-x="547"
   inkscape:window-y="317"
   inkscape:window-maximized="0"
   inkscape:current-layer="Layer_1" />
<g
   id="g3177">
	<g
   id="g3179">
		<path
   fill="#1B75BB"
   d="M63.998,57.118c0,3.802-3.076,6.882-6.876,6.882H7.081c-3.795,0-6.874-3.08-6.874-6.882V7.083    c0-3.797,3.078-6.877,6.874-6.877h50.042c3.8,0,6.876,3.08,6.876,6.877V57.118z"
   id="path3181" />
		<path
   fill="#0867A3"
   d="M0.207,48.779v8.339C0.207,60.92,3.285,64,7.081,64h50.042c3.8,0,6.876-3.08,6.876-6.882V7.083    C53.105,46.651,13.946,49.159,0.207,48.779z"
   id="path3183" />
	</g>
	<path
   fill="#FFFFFF"
   d="M42.736,52.208c2.843-0.191,5.216-1.435,6.257-3.135V15.136c-1.045-1.705-3.428-2.947-6.272-3.135   L15.21,32.034L42.736,52.208z"
   id="path3185" />
</g>
</svg>
